packages/icon/src/svg/tag-assignment.icon.svg

<svg width="24" height="24" viewBox="0 0 24 24" fill="none" xmlns="http://www.w3.org/2000/svg">
<path fill-rule="evenodd" clip-rule="evenodd" d="M13.9052 19.6124C14.1005 19.4171 14.1005 19.1005 13.9052 18.9052L13.1036 18.1036C12.9083 17.9083 12.5917 17.9083 12.3964 18.1036L12 18.5L3.00434 9.60343L3 5H7.60154L11.4234 8.86548C11.6183 9.06263 11.9365 9.06353 12.1325 8.86749L12.8191 8.18086C13.0144 7.98564 13.0144 7.66913 12.8192 7.47385L8.65205 3.30436C8.45728 3.10949 8.19306 3 7.91754 3H2.03846C1.46455 3 0.999461 3.46553 1 4.03944L1.00554 9.9199C1.0058 10.195 1.1152 10.4587 1.30972 10.6533L11.353 20.6959C11.7586 21.1014 12.416 21.1014 12.8216 20.6959L13.9052 19.6124Z" fill="white"/>
<path fill-rule="evenodd" clip-rule="evenodd" d="M5.61539 9.11538C6.44381 9.11538 7.11539 8.44381 7.11539 7.61538C7.11539 6.78696 6.44381 6.11538 5.61539 6.11538C4.78696 6.11538 4.11539 6.78696 4.11539 7.61538C4.11539 8.44381 4.78696 9.11538 5.61539 9.11538Z" fill="white"/>
<path d="M18.5 12H15.5C15.2239 12 15 12.2239 15 12.5V13.5C15 13.7761 15.2239 14 15.5 14H18.5C18.7761 14 19 13.7761 19 13.5V12.5C19 12.2239 18.7761 12 18.5 12Z" fill="white"/>
<path fill-rule="evenodd" clip-rule="evenodd" d="M19 11H18.5C18.2239 11 18 10.7761 18 10.5V9.5C18 9.22386 18.2239 9 18.5 9H19C21.2091 9 23 10.7909 23 13C23 15.2091 21.2091 17 19 17H18.5C18.2239 17 18 16.7761 18 16.5V15.5C18 15.2239 18.2239 15 18.5 15H19C20.1046 15 21 14.1046 21 13C21 11.8954 20.1046 11 19 11Z" fill="white"/>
<path fill-rule="evenodd" clip-rule="evenodd" d="M16 15.5C16 15.2239 15.7761 15 15.5 15H15C13.8954 15 13 14.1046 13 13C13 11.8954 13.8954 11 15 11H15.5C15.7761 11 16 10.7761 16 10.5V9.5C16 9.22386 15.7761 9 15.5 9H15C12.7909 9 11 10.7909 11 13C11 15.2091 12.7909 17 15 17H15.5C15.7761 17 16 16.7761 16 16.5V15.5Z" fill="white"/>
</svg>

<svg aria-label="tag assignment icon" viewBox="0 0 24 24"><path fill-rule="evenodd" clip-rule="evenodd" d="M13.905 19.612a.5.5 0 000-.707l-.801-.801a.5.5 0 00-.708 0L12 18.5 3.004 9.603 3 5h4.602l3.821 3.865a.5.5 0 00.71.002l.686-.686a.5.5 0 000-.707l-4.167-4.17A1.038 1.038 0 007.918 3h-5.88A1.04 1.04 0 001 4.04l.006 5.88c0 .275.11.539.304.733l10.043 10.043a1.039 1.039 0 001.469 0l1.083-1.084z"/><path fill-rule="evenodd" clip-rule="evenodd" d="M5.615 9.115a1.5 1.5 0 100-3 1.5 1.5 0 000 3z"/><path d="M18.5 12h-3a.5.5 0 00-.5.5v1a.5.5 0 00.5.5h3a.5.5 0 00.5-.5v-1a.5.5 0 00-.5-.5z"/><path fill-rule="evenodd" clip-rule="evenodd" d="M19 11h-.5a.5.5 0 01-.5-.5v-1a.5.5 0 01.5-.5h.5a4 4 0 010 8h-.5a.5.5 0 01-.5-.5v-1a.5.5 0 01.5-.5h.5a2 2 0 100-4zm-3 4.5a.5.5 0 00-.5-.5H15a2 2 0 110-4h.5a.5.5 0 00.5-.5v-1a.5.5 0 00-.5-.5H15a4 4 0 000 8h.5a.5.5 0 00.5-.5v-1z"/></svg>
